X:1
T:Before They Close the Minstrel Show
M:4/4
L:1/4
K:G
 z3 G| B d e d| B d G2| z A A B| A G B A-| A2 G2-| G2 z2| z3 G| B d e d/2d/2|\
 B/2B/2 d G B/2B/2| B A A/2A/2 B| A2 B c| d3 G/2G/2| G c B c| d G G A|\
 B c d d| e2 d B| A4-| A c B c| d3 G| B3/2 B/2 A G| c3 d| e/2- d e/2 d B|\
 A4| c3/2 B/2 A F| G4|
